src/topics/icons/aws-waf.svg

<svg height="310" preserveAspectRatio="xMidYMid" viewBox="0 0 256 310" width="256" xmlns="http://www.w3.org/2000/svg"><path d="m0 173.3665.985.521 15.49 1.761 19.455-1.081.856-.45-17.267-1.502z" fill="#b6c99c"/><path d="m127.9998.6979-54.052 27.026v173.507l54.052 9.917 1.85-2.5v-203.499z" fill="#4c612c"/><path d="m127.9998.6979v217.7l54.053-16.141v-174.533z" fill="#769b3f"/><path d="m219.2139 174.1171.922.623 19.339 1.074 15.656-1.779.869-.669-19.519-.75z" fill="#b6c99c"/><path d="m219.2141 210.1525 20.27 2.628.543-.998v-35.397l-.543-1.142-20.27-1.126z" fill="#4c612c"/><path d="m36.7859 210.1525-20.27 2.628-.342-.926v-36.001l.342-.61 20.27-1.126z" fill="#769b3f"/><path d="m125.7478 208.651-89.713-15.765-19.519 1.876.888.891 85.223 17.265.974-.513z" fill="#b6c99c"/><path d="m0 191.3845v54.428l89.713 44.988v.056l38.287 19.144 1.6-3.003v-118.849l-1.6-3.747-38.287-3.753v28.889l-73.197-14.811v-19.483l-16.516-1.877z" fill="#4c612c"/><path d="m128 209.0264 21.771 3.754 2.804.118 85.285-17.129 1.624-1.007-19.144-1.877z" fill="#b6c99c"/><path d="m239.4837 175.243v19.483l-73.196 14.811v-30.165l-38.288 3.754v123.871 3.003l128-64.188v-72.446z" fill="#769b3f"/><path d="m166.2874 182.3754-38.287-3.003-38.288 3.003 38.288 3.754z" fill="#b6c99c"/></svg>

<?xml version="1.0" encoding="UTF-8" standalone="no"?>
<svg width="256px" height="310px" viewBox="0 0 256 310" version="1.1" xmlns="http://www.w3.org/2000/svg" xmlns:xlink="http://www.w3.org/1999/xlink" preserveAspectRatio="xMidYMid">
	<g>
		<path d="M0,173.3665 L0.985,173.8875 L16.475,175.6485 L35.93,174.5675 L36.786,174.1175 L19.519,172.6155 L0,173.3665 Z" fill="#B6C99C"></path>
		<path d="M127.9998,0.6979 L73.9478,27.7239 L73.9478,201.2309 L127.9998,211.1479 L129.8498,208.6479 L129.8498,5.1489 L127.9998,0.6979 Z" fill="#4C612C"></path>
		<path d="M127.9998,0.6979 L127.9998,218.3979 L182.0528,202.2569 L182.0528,27.7239 L127.9998,0.6979 Z" fill="#769B3F"></path>
		<path d="M219.2139,174.1171 L220.1359,174.7401 L239.4749,175.8141 L255.1309,174.0351 L255.9999,173.3661 L236.4809,172.6161 L219.2139,174.1171 Z" fill="#B6C99C"></path>
		<path d="M219.2141,210.1525 L239.4841,212.7805 L240.0271,211.7825 L240.0271,176.3855 L239.4841,175.2435 L219.2141,174.1175 L219.2141,210.1525 Z" fill="#4C612C"></path>
		<path d="M36.7859,210.1525 L16.5159,212.7805 L16.1739,211.8545 L16.1739,175.8535 L16.5159,175.2435 L36.7859,174.1175 L36.7859,210.1525 Z" fill="#769B3F"></path>
		<path d="M125.7478,208.651 L36.0348,192.886 L16.5158,194.762 L17.4038,195.653 L102.6268,212.918 L103.6008,212.405 L125.7478,208.651 Z" fill="#B6C99C"></path>
		<path d="M0,191.3845 L0,245.8125 L89.713,290.8005 L89.713,290.8565 L128,310.0005 L129.6,306.9975 L129.6,188.1485 L128,184.4015 L89.713,180.6485 L89.713,209.5375 L16.516,194.7265 L16.516,175.2435 L0,173.3665 L0,191.3845 Z" fill="#4C612C"></path>
		<path d="M128,209.0264 L149.771,212.7804 L152.575,212.8984 L237.86,195.7694 L239.484,194.7624 L220.34,192.8854 L128,209.0264 Z" fill="#B6C99C"></path>
		<path d="M239.4837,175.243 L239.4837,194.726 L166.2877,209.537 L166.2877,179.372 L127.9997,183.126 L127.9997,306.997 L127.9997,310 L255.9997,245.812 L255.9997,173.366 L239.4837,175.243 Z" fill="#769B3F"></path>
		<path d="M166.2874,182.3754 L128.0004,179.3724 L89.7124,182.3754 L128.0004,186.1294 L166.2874,182.3754 Z" fill="#B6C99C"></path>
	</g>
</svg>
